assets/images/icons/user.svg

<svg width="24" height="24" viewBox="0 0 24 24" fill="none" xmlns="http://www.w3.org/2000/svg">
<g clip-path="url(#clip0_2751_1804)">
<path d="M12 11.9999C13.1867 11.9999 14.3467 11.648 15.3334 10.9888C16.3201 10.3295 17.0892 9.3924 17.5433 8.29604C17.9974 7.19969 18.1162 5.99329 17.8847 4.8294C17.6532 3.66551 17.0818 2.59642 16.2426 1.7573C15.4035 0.918186 14.3344 0.346741 13.1705 0.11523C12.0067 -0.116281 10.8003 0.00253868 9.7039 0.456664C8.60754 0.91079 7.67047 1.67983 7.01118 2.66652C6.35189 3.65321 6 4.81325 6 5.99994C6.00159 7.59075 6.63424 9.11595 7.75911 10.2408C8.88399 11.3657 10.4092 11.9984 12 11.9999ZM12 1.99994C12.7911 1.99994 13.5645 2.23454 14.2223 2.67406C14.8801 3.11359 15.3928 3.7383 15.6955 4.46921C15.9983 5.20011 16.0775 6.00438 15.9231 6.7803C15.7688 7.55623 15.3878 8.26896 14.8284 8.82837C14.269 9.38778 13.5563 9.76874 12.7804 9.92308C12.0044 10.0774 11.2002 9.99821 10.4693 9.69546C9.73836 9.39271 9.11365 8.88002 8.67412 8.22222C8.2346 7.56443 8 6.79107 8 5.99994C8 4.93908 8.42143 3.92166 9.17157 3.17151C9.92172 2.42137 10.9391 1.99994 12 1.99994Z" fill="#262626"/>
<path d="M12 14.0006C9.61386 14.0033 7.32622 14.9523 5.63896 16.6396C3.95171 18.3268 3.00265 20.6145 3 23.0006C3 23.2658 3.10536 23.5202 3.29289 23.7077C3.48043 23.8953 3.73478 24.0006 4 24.0006C4.26522 24.0006 4.51957 23.8953 4.70711 23.7077C4.89464 23.5202 5 23.2658 5 23.0006C5 21.1441 5.7375 19.3636 7.05025 18.0509C8.36301 16.7381 10.1435 16.0006 12 16.0006C13.8565 16.0006 15.637 16.7381 16.9497 18.0509C18.2625 19.3636 19 21.1441 19 23.0006C19 23.2658 19.1054 23.5202 19.2929 23.7077C19.4804 23.8953 19.7348 24.0006 20 24.0006C20.2652 24.0006 20.5196 23.8953 20.7071 23.7077C20.8946 23.5202 21 23.2658 21 23.0006C20.9974 20.6145 20.0483 18.3268 18.361 16.6396C16.6738 14.9523 14.3861 14.0033 12 14.0006Z" fill="#262626"/>
</g>
<defs>
<clipPath id="clip0_2751_1804">
<rect width="24" height="24" fill="white"/>
</clipPath>
</defs>
</svg>

<?xml version="1.0" encoding="utf-8"?>
<!-- Generator: Adobe Illustrator 25.0.0, SVG Export Plug-In . SVG Version: 6.00 Build 0)  -->
<svg version="1.1" id="圖層_1" xmlns="http://www.w3.org/2000/svg" xmlns:xlink="http://www.w3.org/1999/xlink" x="0px" y="0px"
	 viewBox="0 0 24 24" style="enable-background:new 0 0 24 24;" xml:space="preserve">
<style type="text/css">
	.st0{clip-path:url(#SVGID_2_);}
	.st1{fill:#FFFFFF;}
</style>
<g>
	<defs>
		<rect id="SVGID_1_" y="0" width="24" height="24"/>
	</defs>
	<clipPath id="SVGID_2_">
		<use xlink:href="#SVGID_1_"  style="overflow:visible;"/>
	</clipPath>
	<g class="st0">
		<path class="st1" d="M12,12c1.2,0,2.3-0.4,3.3-1c1-0.7,1.8-1.6,2.2-2.7C18,7.2,18.1,6,17.9,4.8c-0.2-1.2-0.8-2.2-1.6-3.1
			c-0.8-0.8-1.9-1.4-3.1-1.6C12-0.1,10.8,0,9.7,0.5C8.6,0.9,7.7,1.7,7,2.7S6,4.8,6,6c0,1.6,0.6,3.1,1.8,4.2C8.9,11.4,10.4,12,12,12z
			 M12,2c0.8,0,1.6,0.2,2.2,0.7c0.7,0.4,1.2,1.1,1.5,1.8C16,5.2,16.1,6,15.9,6.8c-0.2,0.8-0.5,1.5-1.1,2c-0.6,0.6-1.3,0.9-2,1.1
			c-0.8,0.2-1.6,0.1-2.3-0.2C9.7,9.4,9.1,8.9,8.7,8.2C8.2,7.6,8,6.8,8,6c0-1.1,0.4-2.1,1.2-2.8C9.9,2.4,10.9,2,12,2z"/>
		<path class="st1" d="M12,14c-2.4,0-4.7,1-6.4,2.6C4,18.3,3,20.6,3,23c0,0.3,0.1,0.5,0.3,0.7C3.5,23.9,3.7,24,4,24s0.5-0.1,0.7-0.3
			C4.9,23.5,5,23.3,5,23c0-1.9,0.7-3.6,2.1-4.9C8.4,16.7,10.1,16,12,16s3.6,0.7,4.9,2.1c1.3,1.3,2.1,3.1,2.1,4.9
			c0,0.3,0.1,0.5,0.3,0.7c0.2,0.2,0.4,0.3,0.7,0.3s0.5-0.1,0.7-0.3c0.2-0.2,0.3-0.4,0.3-0.7c0-2.4-1-4.7-2.6-6.4
			C16.7,15,14.4,14,12,14z"/>
	</g>
</g>
</svg>
